src/swap-vertical.svg

<svg width="24" height="24" viewBox="0 0 24 24" xmlns="http://www.w3.org/2000/svg" xmlns:xlink="http://www.w3.org/1999/xlink">
  <path d="M16 17.01V10h-2v7.01h-3L15 21l4-3.99h-3zM9 3L5 6.99h3V14h2V6.99h3L9 3z" fill="currentColor"/>
</svg>

<svg width="24" height="24" viewBox="0 0 24 24" xmlns="http://www.w3.org/2000/svg">
<path fill-rule="evenodd" clip-rule="evenodd" d="M16 17.01V10H14V17.01H11L15 21L19 17.01H16ZM9 3L5 6.99H8V14H10V6.99H13L9 3Z" fill="currentColor"/>
</svg>
